X: 615
T: Sailor Jack.
T: sean an loingseoir.
R:air
N:"Moderate."
B:O'Neill's 615
Z:The meter is given as "2"--must be a typo--should be 2/4
Z:Transcribed by John Walsh (walsh@math.ubc.ca)
M:2/4
L:1/8
%Q:110
K:G
g|(dB) A>G|GBD z/ E/|GG c>B|B A2 g|
dB A>G|GBD z/ E/|GB A>G|G2 z||
B|c>B cd|ed g>e|dB (AB/d/)|e3 g|
dB A>G|GBD z/ E/|GB A>G|G2 z||


